humanity-icon-theme/Humanity/animations/48/brasero-disc-50.svg

<?xml version="1.0" encoding="UTF-8" standalone="no"?>
<!-- Created with Inkscape (http://www.inkscape.org/) -->
<svg
   xmlns:dc="http://purl.org/dc/elements/1.1/"
   xmlns:cc="http://creativecommons.org/ns#"
   xmlns:rdf="http://www.w3.org/1999/02/22-rdf-syntax-ns#"
   xmlns:svg="http://www.w3.org/2000/svg"
   xmlns="http://www.w3.org/2000/svg"
   xmlns:xlink="http://www.w3.org/1999/xlink"
   xmlns:sodipodi="http://sodipodi.sourceforge.net/DTD/sodipodi-0.dtd"
   xmlns:inkscape="http://www.inkscape.org/namespaces/inkscape"
   version="1.0"
   width="48"
   height="48"
   id="svg2458"
   sodipodi:version="0.32"
   inkscape:version="0.46"
   sodipodi:docname="brasero-disc-50.svg"
   inkscape:output_extension="org.inkscape.output.svg.inkscape">
  <metadata
     id="metadata66">
    <rdf:RDF>
      <cc:Work
         rdf:about="">
        <dc:format>image/svg+xml</dc:format>
        <dc:type
           rdf:resource="http://purl.org/dc/dcmitype/StillImage" />
      </cc:Work>
    </rdf:RDF>
  </metadata>
  <sodipodi:namedview
     inkscape:window-height="779"
     inkscape:window-width="1440"
     inkscape:pageshadow="2"
     inkscape:pageopacity="0.0"
     guidetolerance="10.0"
     gridtolerance="10.0"
     objecttolerance="10.0"
     borderopacity="1.0"
     bordercolor="#666666"
     pagecolor="#ffffff"
     id="base"
     showgrid="false"
     inkscape:zoom="11.895833"
     inkscape:cx="24"
     inkscape:cy="24"
     inkscape:window-x="0"
     inkscape:window-y="24"
     inkscape:current-layer="svg2458" />
  <defs
     id="defs2460">
    <linearGradient
       inkscape:collect="always"
       id="linearGradient3216">
      <stop
         style="stop-color:#ffffff;stop-opacity:1;"
         offset="0"
         id="stop3218" />
      <stop
         style="stop-color:#ffffff;stop-opacity:0;"
         offset="1"
         id="stop3220" />
    </linearGradient>
    <linearGradient
       id="linearGradient23419">
      <stop
         id="stop23421"
         style="stop-color:#000000;stop-opacity:1"
         offset="0" />
      <stop
         id="stop23423"
         style="stop-color:#000000;stop-opacity:0"
         offset="1" />
    </linearGradient>
    <linearGradient
       id="linearGradient3772">
      <stop
         id="stop3774"
         style="stop-color:#b4b4b4;stop-opacity:1"
         offset="0" />
      <stop
         id="stop3776"
         style="stop-color:#969696;stop-opacity:1"
         offset="1" />
    </linearGradient>
    <linearGradient
       x1="12.2744"
       y1="32.4165"
       x2="35.391201"
       y2="14.2033"
       id="linearGradient3263"
       gradientUnits="userSpaceOnUse">
      <stop
         id="stop3265"
         style="stop-color:#dedbde;stop-opacity:1"
         offset="0" />
      <stop
         id="stop3267"
         style="stop-color:#e6e6e6;stop-opacity:1"
         offset="0.5" />
      <stop
         id="stop3269"
         style="stop-color:#d2d2d2;stop-opacity:1"
         offset="1" />
    </linearGradient>
    <linearGradient
       id="linearGradient3428">
      <stop
         id="stop3430"
         style="stop-color:#aaaaaa;stop-opacity:1"
         offset="0" />
      <stop
         id="stop3432"
         style="stop-color:#d4d4d4;stop-opacity:1"
         offset="1" />
    </linearGradient>
    <linearGradient
       id="linearGradient3519">
      <stop
         id="stop3521"
         style="stop-color:#fcd9cd;stop-opacity:1"
         offset="0" />
      <stop
         id="stop3523"
         style="stop-color:#fcd9cd;stop-opacity:0"
         offset="1" />
    </linearGradient>
    <linearGradient
       x1="10.609375"
       y1="17.886322"
       x2="9.7297754"
       y2="20.612656"
       id="linearGradient3354"
       xlink:href="#linearGradient3519"
       gradientUnits="userSpaceOnUse"
       spreadMethod="reflect" />
    <linearGradient
       id="linearGradient3511">
      <stop
         id="stop3513"
         style="stop-color:#ebeec7;stop-opacity:1"
         offset="0" />
      <stop
         id="stop3515"
         style="stop-color:#ebeec7;stop-opacity:0"
         offset="1" />
    </linearGradient>
    <linearGradient
       x1="12.371647"
       y1="16.188046"
       x2="14.609327"
       y2="13.461712"
       id="linearGradient3352"
       xlink:href="#linearGradient3511"
       gradientUnits="userSpaceOnUse"
       spreadMethod="reflect" />
    <linearGradient
       id="linearGradient3503">
      <stop
         id="stop3505"
         style="stop-color:#c4ebdd;stop-opacity:1"
         offset="0" />
      <stop
         id="stop3507"
         style="stop-color:#c4ebdd;stop-opacity:0"
         offset="1" />
    </linearGradient>
    <linearGradient
       x1="14.084608"
       y1="13.045606"
       x2="16.994024"
       y2="10.732353"
       id="linearGradient3350"
       xlink:href="#linearGradient3503"
       gradientUnits="userSpaceOnUse"
       spreadMethod="reflect" />
    <linearGradient
       id="linearGradient3495">
      <stop
         id="stop3497"
         style="stop-color:#c1cbe4;stop-opacity:1"
         offset="0" />
      <stop
         id="stop3499"
         style="stop-color:#c1cbe4;stop-opacity:0"
         offset="1" />
    </linearGradient>
    <linearGradient
       x1="17.494959"
       y1="11.200086"
       x2="21.047453"
       y2="9.7956104"
       id="linearGradient3348"
       xlink:href="#linearGradient3495"
       gradientUnits="userSpaceOnUse"
       spreadMethod="reflect" />
    <linearGradient
       id="linearGradient3487">
      <stop
         id="stop3489"
         style="stop-color:#e6cde2;stop-opacity:1"
         offset="0" />
      <stop
         id="stop3491"
         style="stop-color:#e6cde2;stop-opacity:0"
         offset="1" />
    </linearGradient>
    <linearGradient
       x1="20.580074"
       y1="10.774516"
       x2="24.27351"
       y2="9.8622112"
       id="linearGradient3346"
       xlink:href="#linearGradient3487"
       gradientUnits="userSpaceOnUse"
       spreadMethod="reflect" />
    <linearGradient
       id="linearGradient3839">
      <stop
         id="stop3841"
         style="stop-color:#ffed8c;stop-opacity:1"
         offset="0" />
      <stop
         id="stop3843"
         style="stop-color:#fb9858;stop-opacity:1"
         offset="0.26238" />
      <stop
         id="stop3845"
         style="stop-color:#dc572a;stop-opacity:1"
         offset="0.66093999" />
      <stop
         id="stop3847"
         style="stop-color:#9f3110;stop-opacity:1"
         offset="1" />
    </linearGradient>
    <linearGradient
       id="linearGradient6036">
      <stop
         id="stop6038"
         style="stop-color:#ffffff;stop-opacity:1"
         offset="0" />
      <stop
         id="stop6040"
         style="stop-color:#ffffff;stop-opacity:0"
         offset="1" />
    </linearGradient>
    <linearGradient
       inkscape:collect="always"
       xlink:href="#linearGradient6036"
       id="linearGradient2443"
       gradientUnits="userSpaceOnUse"
       gradientTransform="matrix(0.4293444,0,0,0.4293442,13.546752,13.266392)"
       x1="18.775953"
       y1="4.0378027"
       x2="18.203465"
       y2="45.962208" />
    <linearGradient
       inkscape:collect="always"
       xlink:href="#linearGradient3428"
       id="linearGradient2455"
       gradientUnits="userSpaceOnUse"
       gradientTransform="matrix(0.9375,0,0,0.9375,1.5,1.5)"
       x1="21.448364"
       y1="15.5"
       x2="21.448364"
       y2="32.509201" />
    <linearGradient
       inkscape:collect="always"
       xlink:href="#linearGradient3263"
       id="linearGradient2459"
       gradientUnits="userSpaceOnUse"
       gradientTransform="matrix(0,1.1714389,-1.1714389,0,51.060244,-4.11454)"
       x1="12.2744"
       y1="32.4165"
       x2="35.391201"
       y2="14.2033" />
    <linearGradient
       inkscape:collect="always"
       xlink:href="#linearGradient3772"
       id="linearGradient2461"
       gradientUnits="userSpaceOnUse"
       gradientTransform="translate(50.26506,0)"
       x1="-21.915663"
       y1="3"
       x2="-21.915663"
       y2="45.032898" />
    <radialGradient
       inkscape:collect="always"
       xlink:href="#linearGradient23419"
       id="radialGradient2464"
       gradientUnits="userSpaceOnUse"
       gradientTransform="matrix(0.9722718,0,0,0.2872354,1.3124992,27.540524)"
       cx="23.334524"
       cy="41.63604"
       fx="23.334524"
       fy="41.63604"
       r="22.627417" />
    <radialGradient
       inkscape:collect="always"
       xlink:href="#linearGradient3839"
       id="radialGradient2467"
       gradientUnits="userSpaceOnUse"
       gradientTransform="matrix(0,3.4076715,-4.4528468,0,77.533666,-12.124767)"
       cx="8.8912868"
       cy="12.12289"
       fx="8.8912868"
       fy="12.12289"
       r="11" />
    <linearGradient
       inkscape:collect="always"
       xlink:href="#linearGradient3216"
       id="linearGradient3222"
       x1="14.632159"
       y1="-0.53575337"
       x2="14.632159"
       y2="48.541374"
       gradientUnits="userSpaceOnUse" />
    <linearGradient
       inkscape:collect="always"
       xlink:href="#linearGradient6036"
       id="linearGradient2447"
       gradientUnits="userSpaceOnUse"
       gradientTransform="matrix(0.4293444,0,0,-0.4293442,13.546752,34.733607)"
       x1="18.775953"
       y1="4.0378027"
       x2="18.203465"
       y2="45.962208" />
  </defs>
  <path
     style="opacity:0.3;fill:url(#radialGradient2464);fill-opacity:1;fill-rule:evenodd;stroke:none;stroke-width:2;marker:none;visibility:visible;display:inline;overflow:visible"
     id="path23417"
     d="M 46,39.499867 C 46.0011,43.08962 36.151066,45.999868 24,45.999868 C 11.848934,45.999868 1.998867,43.08962 2.0000001,39.499867 C 1.998867,35.910116 11.848934,32.999868 24,32.999868 C 36.151066,32.999868 46.001133,35.910116 46,39.499867 L 46,39.499867 z" />
  <path
     style="fill:url(#linearGradient2459);fill-rule:nonzero;stroke:url(#linearGradient2461);stroke-width:1;stroke-miterlimit:4;stroke-opacity:1"
     id="path2781"
     d="M 44.5,24 C 44.5,12.637039 35.362959,3.5 24,3.5 C 12.637038,3.5 3.5000001,12.63704 3.5000001,24 C 3.4999981,35.36296 12.637039,44.5 24,44.5 C 35.362958,44.499998 44.5,35.362961 44.5,24 z M 31.5,24 C 31.5,28.12813 28.21073,31.5 24,31.5 C 19.70667,31.5 16.5,28.044687 16.5,24 C 16.5,19.872697 19.541467,16.5 24,16.5 C 28.458533,16.5 31.5,19.95447 31.5,24 z" />
  <path
     style="opacity:0.5;fill:#ffffff;fill-opacity:1;fill-rule:nonzero;stroke:none;stroke-width:1;marker:none;visibility:visible;display:inline;overflow:visible;enable-background:accumulate"
     id="path2474"
     d="M 24,16 C 19.584,16 16,19.584 16,24 C 16,28.416 19.584,32 24,32 C 28.416,32 32,28.416 32,24 C 32,19.584 28.416,16 24,16 z M 24,20 C 26.208,20 28,21.792 28,24 C 28,26.208 26.208,28 24,28 C 21.792,28 20,26.208 20,24 C 20,21.792 21.792,20 24,20 z" />
  <path
     style="fill:none;stroke:url(#linearGradient2455);stroke-width:1;stroke-linecap:butt;stroke-linejoin:round;marker:none;stroke-miterlimit:4;stroke-dasharray:none;stroke-dashoffset:0;stroke-opacity:1;visibility:visible;display:inline;overflow:visible;enable-background:accumulate"
     id="path3418"
     d="M 24,16.5 C 19.86,16.5 16.5,19.86 16.5,24 C 16.5,28.14 19.86,31.5 24,31.5 C 28.14,31.5 31.5,28.14 31.5,24 C 31.5,19.86 28.14,16.5 24,16.5 z M 24,20.25 C 26.07,20.25 27.75,21.93 27.75,24 C 27.75,26.07 26.07,27.75 24,27.75 C 21.93,27.75 20.25,26.07 20.25,24 C 20.25,21.93 21.93,20.25 24,20.25 z" />
  <g
     id="g3527">
    <path
       style="opacity:0.8;fill:url(#linearGradient3346);fill-opacity:1;fill-rule:nonzero;stroke:none"
       id="path3296"
       transform="matrix(0.9996011,2.824295e-2,-2.824295e-2,0.9996011,0.6924114,-0.6708346)"
       d="M 15.856928,5.7307748 L 20.625,16.34375 C 21.660403,15.885186 22.795334,15.625 24,15.625 C 24.03206,15.625 24.06178,15.62464 24.09375,15.625 L 24.10801,4.0047512 C 21.16586,3.9340642 18.564969,4.6620377 15.856927,5.7307748 L 15.856928,5.7307748 z" />
    <path
       style="opacity:0.8;fill:url(#linearGradient3348);fill-opacity:1;fill-rule:nonzero;stroke:none"
       id="path3308"
       d="M 12.121471,7.9060109 L 19.052497,17.266115 C 19.965606,16.59636 21.018435,16.099051 22.195126,15.840946 C 22.226446,15.834046 22.255386,15.827356 22.286696,15.820856 L 19.857174,4.426276 C 16.968201,4.9876004 14.537644,6.2818798 12.121471,7.9060109 L 12.121471,7.9060109 z" />
    <path
       style="opacity:0.8;fill:url(#linearGradient3350);fill-opacity:1;fill-rule:nonzero;stroke:none"
       id="path3310"
       d="M 8.2523933,11.646535 L 17.466117,18.802353 C 18.174767,17.919089 19.063008,17.166234 20.132802,16.612373 C 20.161272,16.597633 20.187492,16.583653 20.216052,16.569273 L 14.86585,6.2506132 C 12.220599,7.5405321 10.165881,9.452393 8.2523933,11.646535 z" />
    <path
       style="opacity:0.8;fill:url(#linearGradient3352);fill-opacity:1;fill-rule:nonzero;stroke:none"
       id="path3312"
       d="M 5.6328855,16.073974 C 12.807692,18.316222 13.483148,23.105437 18.409671,17.828101 L 10.499985,9.1321388 C 8.2787249,11.062747 6.9132871,13.459349 5.6328855,16.073974 z" />
    <path
       style="opacity:0.8;fill:url(#linearGradient3354);fill-opacity:1;fill-rule:nonzero;stroke:none"
       id="path3314"
       d="M 7.155289,13.193173 C 5.9722117,14.945185 5.2475768,16.829547 4.6301929,18.837116 L 15.96875,21.8125 C 16.184264,21.049497 16.486796,20.297733 16.9375,19.59375 C 16.95479,19.56675 16.98246,19.52673 17,19.5 L 7.155289,13.193173 z" />
  </g>
  <path
     style="opacity:0.4;fill:none;stroke:url(#linearGradient2443);stroke-width:0.99999982;stroke-miterlimit:4;stroke-opacity:1"
     d="M 23.290762,15.528851 C 18.914086,15.886599 15.5,19.52748 15.5,23.999999 C 15.5,28.444051 18.870764,32.067019 23.207309,32.463919"
     id="path3281" />
  <path
     style="fill:url(#radialGradient2467);fill-opacity:1;fill-rule:nonzero;stroke:#ce5c00;stroke-width:1;stroke-linecap:round;stroke-linejoin:round;marker:none;marker-start:none;marker-mid:none;marker-end:none;stroke-miterlimit:4;stroke-dasharray:none;stroke-dashoffset:0;stroke-opacity:1;visibility:visible;display:inline;overflow:visible;enable-background:accumulate"
     d="M 23.5,3.5 C 23.500109,7.8333333 23.5,12.166667 23.5,16.5 C 27.929586,16.391734 32.231892,20.570868 31.416252,25.111889 C 30.78369,28.789874 27.850476,31.5 23.5,31.5 C 23.5,35.833333 23.500109,40.166667 23.5,44.5 C 29.867936,44.447877 35.866353,41.612114 40.00281,36.845427 C 44.651479,31.148602 45.827035,22.887395 42.941611,16.122832 C 40.529323,10.292071 35.312921,5.5319872 29.063764,4.2383526 C 27.234739,3.8506745 25.379362,3.4474494 23.5,3.5 z"
     id="path2559"
     sodipodi:nodetypes="ccccccccc" />
  <path
     style="opacity:0.4;fill:none;stroke:url(#linearGradient2447);stroke-width:0.99999982;stroke-miterlimit:4;stroke-opacity:1"
     d="M 24,15.499999 C 28.711431,15.499999 32.5,19.288571 32.5,24 C 32.5,28.711429 28.711431,32.5 24,32.5 L 24,32.5 L 24,32.5 L 24,32.5"
     id="path2445" />
  <path
     style="opacity:0.40000000000000002;fill:none;fill-opacity:1;fill-rule:evenodd;stroke:url(#linearGradient3222);stroke-width:1px;stroke-linecap:butt;stroke-linejoin:miter;stroke-opacity:1"
     id="path2561"
     d="M 24.5,43 L 24.5,33 M 24.5,5 L 24.5,15 M 24.000001,4.5000009 C 13.191429,4.5000009 4.4999995,13.191431 4.4999995,24.000001 C 4.4999995,34.808572 13.191429,43.499999 24.000001,43.499999 C 34.808573,43.499999 43.5,34.808572 43.5,24.000001 C 43.5,13.191431 34.808573,4.5000009 24.000001,4.5000009 L 24.000001,4.5000009 L 24.000001,4.5000009 z" />
</svg>

<?xml version="1.0" encoding="UTF-8" standalone="no"?>
<!-- Created with Inkscape (http://www.inkscape.org/) -->
<svg id="svg2458" xmlns:rdf="http://www.w3.org/1999/02/22-rdf-syntax-ns#" xmlns="http://www.w3.org/2000/svg" height="48" width="48" version="1.0" xmlns:cc="http://creativecommons.org/ns#" xmlns:xlink="http://www.w3.org/1999/xlink" xmlns:dc="http://purl.org/dc/elements/1.1/">
 <metadata id="metadata66">
  <rdf:RDF>
   <cc:Work rdf:about="">
    <dc:format>image/svg+xml</dc:format>
    <dc:type rdf:resource="http://purl.org/dc/dcmitype/StillImage"/>
   </cc:Work>
  </rdf:RDF>
 </metadata>
 <defs id="defs2460">
  <linearGradient id="linearGradient3354" y2="20.613" spreadMethod="reflect" gradientUnits="userSpaceOnUse" x2="9.7298" y1="17.886" x1="10.609">
   <stop id="stop3521" style="stop-color:#fcd9cd" offset="0"/>
   <stop id="stop3523" style="stop-color:#fcd9cd;stop-opacity:0" offset="1"/>
  </linearGradient>
  <linearGradient id="linearGradient3352" y2="13.462" spreadMethod="reflect" gradientUnits="userSpaceOnUse" x2="14.609" y1="16.188" x1="12.372">
   <stop id="stop3513" style="stop-color:#ebeec7" offset="0"/>
   <stop id="stop3515" style="stop-color:#ebeec7;stop-opacity:0" offset="1"/>
  </linearGradient>
  <linearGradient id="linearGradient3350" y2="10.732" spreadMethod="reflect" gradientUnits="userSpaceOnUse" x2="16.994" y1="13.046" x1="14.085">
   <stop id="stop3505" style="stop-color:#c4ebdd" offset="0"/>
   <stop id="stop3507" style="stop-color:#c4ebdd;stop-opacity:0" offset="1"/>
  </linearGradient>
  <linearGradient id="linearGradient3348" y2="9.7956" spreadMethod="reflect" gradientUnits="userSpaceOnUse" x2="21.047" y1="11.2" x1="17.495">
   <stop id="stop3497" style="stop-color:#c1cbe4" offset="0"/>
   <stop id="stop3499" style="stop-color:#c1cbe4;stop-opacity:0" offset="1"/>
  </linearGradient>
  <linearGradient id="linearGradient3346" y2="9.8622" spreadMethod="reflect" gradientUnits="userSpaceOnUse" x2="24.274" y1="10.775" x1="20.58">
   <stop id="stop3489" style="stop-color:#e6cde2" offset="0"/>
   <stop id="stop3491" style="stop-color:#e6cde2;stop-opacity:0" offset="1"/>
  </linearGradient>
  <linearGradient id="linearGradient6036">
   <stop id="stop6038" style="stop-color:#fff" offset="0"/>
   <stop id="stop6040" style="stop-color:#fff;stop-opacity:0" offset="1"/>
  </linearGradient>
  <linearGradient id="linearGradient2443" y2="45.962" xlink:href="#linearGradient6036" gradientUnits="userSpaceOnUse" x2="18.203" gradientTransform="matrix(.42934 0 0 .42934 13.547 13.266)" y1="4.0378" x1="18.776"/>
  <linearGradient id="linearGradient2455" y2="32.509" gradientUnits="userSpaceOnUse" x2="21.448" gradientTransform="matrix(.9375 0 0 .9375 1.5 1.5)" y1="15.5" x1="21.448">
   <stop id="stop3430" style="stop-color:#aaa" offset="0"/>
   <stop id="stop3432" style="stop-color:#d4d4d4" offset="1"/>
  </linearGradient>
  <linearGradient id="linearGradient2459" y2="14.203" gradientUnits="userSpaceOnUse" x2="35.391" gradientTransform="matrix(0 1.1714 -1.1714 0 51.06 -4.1145)" y1="32.416" x1="12.274">
   <stop id="stop3265" style="stop-color:#dedbde" offset="0"/>
   <stop id="stop3267" style="stop-color:#e6e6e6" offset=".5"/>
   <stop id="stop3269" style="stop-color:#d2d2d2" offset="1"/>
  </linearGradient>
  <linearGradient id="linearGradient2461" y2="45.033" gradientUnits="userSpaceOnUse" x2="-21.916" gradientTransform="translate(50.265)" y1="3" x1="-21.916">
   <stop id="stop3774" style="stop-color:#b4b4b4" offset="0"/>
   <stop id="stop3776" style="stop-color:#969696" offset="1"/>
  </linearGradient>
  <radialGradient id="radialGradient2464" gradientUnits="userSpaceOnUse" cy="41.636" cx="23.335" gradientTransform="matrix(.97227 0 0 .28724 1.3125 27.541)" r="22.627">
   <stop id="stop23421" offset="0"/>
   <stop id="stop23423" style="stop-opacity:0" offset="1"/>
  </radialGradient>
  <radialGradient id="radialGradient2467" gradientUnits="userSpaceOnUse" cy="12.123" cx="8.8913" gradientTransform="matrix(0 3.4077 -4.4528 0 77.534 -12.125)" r="11">
   <stop id="stop3841" style="stop-color:#ffed8c" offset="0"/>
   <stop id="stop3843" style="stop-color:#fb9858" offset=".26238"/>
   <stop id="stop3845" style="stop-color:#dc572a" offset=".66094"/>
   <stop id="stop3847" style="stop-color:#9f3110" offset="1"/>
  </radialGradient>
  <linearGradient id="linearGradient3222" y2="48.541" gradientUnits="userSpaceOnUse" x2="14.632" y1="-.53575" x1="14.632">
   <stop id="stop3218" style="stop-color:#fff" offset="0"/>
   <stop id="stop3220" style="stop-color:#fff;stop-opacity:0" offset="1"/>
  </linearGradient>
  <linearGradient id="linearGradient2447" y2="45.962" xlink:href="#linearGradient6036" gradientUnits="userSpaceOnUse" x2="18.203" gradientTransform="matrix(.42934 0 0 -.42934 13.547 34.734)" y1="4.0378" x1="18.776"/>
 </defs>
 <path id="path23417" style="opacity:.3;fill-rule:evenodd;fill:url(#radialGradient2464)" d="m46 39.5c0.001 3.59-9.849 6.5-22 6.5s-22.001-2.91-22-6.5c-0.0011-3.59 9.849-6.5 22-6.5s22.001 2.91 22 6.5z"/>
 <path id="path2781" style="stroke:url(#linearGradient2461);fill:url(#linearGradient2459)" d="m44.5 24c0-11.363-9.137-20.5-20.5-20.5s-20.5 9.137-20.5 20.5 9.137 20.5 20.5 20.5 20.5-9.137 20.5-20.5zm-13 0c0 4.128-3.289 7.5-7.5 7.5-4.293 0-7.5-3.455-7.5-7.5 0-4.127 3.041-7.5 7.5-7.5s7.5 3.454 7.5 7.5z"/>
 <path id="path2474" style="opacity:.5;fill:#fff" d="m24 16c-4.416 0-8 3.584-8 8s3.584 8 8 8 8-3.584 8-8-3.584-8-8-8zm0 4c2.208 0 4 1.792 4 4s-1.792 4-4 4-4-1.792-4-4 1.792-4 4-4z"/>
 <path id="path3418" style="stroke-linejoin:round;stroke:url(#linearGradient2455);fill:none" d="m24 16.5c-4.14 0-7.5 3.36-7.5 7.5s3.36 7.5 7.5 7.5 7.5-3.36 7.5-7.5-3.36-7.5-7.5-7.5zm0 3.75c2.07 0 3.75 1.68 3.75 3.75s-1.68 3.75-3.75 3.75-3.75-1.68-3.75-3.75 1.68-3.75 3.75-3.75z"/>
 <g id="g3527">
  <path id="path3296" d="m15.857 5.7308l4.768 10.613c1.035-0.459 2.17-0.719 3.375-0.719h0.094l0.014-11.62c-2.942-0.0709-5.543 0.657-8.251 1.7258z" style="opacity:.8;fill:url(#linearGradient3346)" transform="matrix(.99960 .028243 -.028243 .99960 .69241 -.67083)"/>
  <path id="path3308" style="opacity:.8;fill:url(#linearGradient3348)" d="m12.121 7.906l6.931 9.36c0.914-0.67 1.966-1.167 3.143-1.425 0.031-0.007 0.06-0.014 0.092-0.02l-2.43-11.395c-2.889 0.5616-5.319 1.8559-7.736 3.48z"/>
  <path id="path3310" style="opacity:.8;fill:url(#linearGradient3350)" d="m8.2524 11.647l9.2136 7.155c0.709-0.883 1.597-1.636 2.667-2.19 0.028-0.014 0.054-0.028 0.083-0.043l-5.35-10.318c-2.645 1.2895-4.7 3.2014-6.6136 5.396z"/>
  <path id="path3312" style="opacity:.8;fill:url(#linearGradient3352)" d="m5.6329 16.074c7.1751 2.242 7.8501 7.031 12.777 1.754l-7.91-8.6959c-2.2213 1.9309-3.5867 4.3269-4.8671 6.9419z"/>
  <path id="path3314" style="opacity:.8;fill:url(#linearGradient3354)" d="m7.1553 13.193c-1.1831 1.752-1.9077 3.637-2.5251 5.644l11.339 2.975c0.215-0.763 0.518-1.514 0.969-2.218 0.017-0.027 0.044-0.067 0.062-0.094l-9.8447-6.307z"/>
 </g>
 <path id="path3281" style="opacity:.4;stroke:url(#linearGradient2443);fill:none" d="m23.291 15.529c-4.377 0.358-7.791 3.998-7.791 8.471 0 4.444 3.371 8.067 7.707 8.464"/>
 <path id="path2559" style="stroke-linejoin:round;stroke:#ce5c00;stroke-linecap:round;fill:url(#radialGradient2467)" d="m23.5 3.5v13c4.43-0.108 8.732 4.071 7.916 8.612-0.632 3.678-3.566 6.388-7.916 6.388v13c6.368-0.052 12.366-2.888 16.503-7.655 4.648-5.696 5.824-13.958 2.939-20.722-2.413-5.831-7.629-10.591-13.878-11.885-1.829-0.3873-3.685-0.7906-5.564-0.738z"/>
 <path id="path2445" style="opacity:.4;stroke:url(#linearGradient2447);fill:none" d="m24 15.5c4.711 0 8.5 3.789 8.5 8.5s-3.789 8.5-8.5 8.5"/>
 <path id="path2561" style="opacity:.4;stroke:url(#linearGradient3222);stroke-width:1px;fill:none" d="m24.5 43v-10m0-28v10m-0.5-10.5c-10.809 0-19.5 8.691-19.5 19.5s8.691 19.5 19.5 19.5 19.5-8.691 19.5-19.5-8.691-19.5-19.5-19.5z"/>
</svg>
